img/icons/calendar_o.svg

<svg xmlns="http://www.w3.org/2000/svg" viewBox="0 0 25.67 25.67"><path d="M2.59 6.47h20.5a1 1 0 0 1 1 1v15.82a1 1 0 0 1-1 1H2.59a1 1 0 0 1-1-1V7.47a1 1 0 0 1 1-1zm20.25-4.14h-1.25V0h-2.5v2.33H6.59V0h-2.5v2.33H2.84a2.43 2.43 0 0 0-2.5 2.34v18.66a2.43 2.43 0 0 0 2.5 2.34h20a2.43 2.43 0 0 0 2.5-2.34V4.67a2.43 2.43 0 0 0-2.5-2.34z" fill="#95999f"/></svg>

<svg xmlns="http://www.w3.org/2000/svg" viewBox="0 0 25.67 25.67">
	<path d="M2.59,6.47h20.5a1,1,0,0,1,1,1V23.29a1,1,0,0,1-1,1H2.59a1,1,0,0,1-1-1V7.47A1,1,0,0,1,2.59,6.47ZM22.84,2.33H21.59V0h-2.5V2.33H6.59V0H4.09V2.33H2.84A2.43,2.43,0,0,0,.34,4.67V23.33a2.43,2.43,0,0,0,2.5,2.34h20a2.43,2.43,0,0,0,2.5-2.34V4.67A2.43,2.43,0,0,0,22.84,2.33Z" fill="#95999f"/>
</svg>
